static/img/google.svg

<svg fill="none" height="34" viewBox="0 0 34 34" width="34" xmlns="http://www.w3.org/2000/svg"><path d="m30.8912 14.2254h-1.1412v-.0588h-12.75v5.6667h8.0063c-1.168 3.2987-4.3066 5.6666-8.0063 5.6666-4.6941 0-8.49996-3.8059-8.49996-8.5s3.80586-8.49998 8.49996-8.49998c2.1668 0 4.1381.81742 5.6391 2.15258l4.007-4.007c-2.5301-2.35804-5.9146-3.81225-9.6461-3.81225-7.8235 0-14.16663 6.34313-14.16663 14.16665 0 7.8236 6.34313 14.1667 14.16663 14.1667 7.8236 0 14.1667-6.3431 14.1667-14.1667 0-.9499-.0977-1.8771-.2755-2.7745z" fill="#ffc107"/><path d="m4.4668 10.406 4.65445 3.4135c1.25945-3.1181 4.30955-5.31958 7.87875-5.31958 2.1668 0 4.1381.81742 5.6391 2.15258l4.007-4.007c-2.5301-2.35804-5.9146-3.81225-9.6461-3.81225-5.4414 0-10.16029 3.07204-12.5332 7.57275z" fill="#ff3d00"/><path d="m17.0001 31.1667c3.6592 0 6.9841-1.4004 9.498-3.6777l-4.3846-3.7103c-1.4701 1.1181-3.2665 1.7228-5.1134 1.7213-3.6848 0-6.8135-2.3495-7.99217-5.6284l-4.61975 3.5594c2.34459 4.5878 7.10602 7.7357 12.61192 7.7357z" fill="#4caf50"/><path d="m30.8911 14.2255h-1.1411v-.0588h-12.75v5.6667h8.0063c-.5587 1.57-1.5652 2.9418-2.895 3.9461l.0022-.0014 4.3845 3.7103c-.3102.2819 4.6687-3.405 4.6687-10.4883 0-.9499-.0978-1.8771-.2756-2.7746z" fill="#1976d2"/></svg>

<svg width="34" height="34" viewBox="0 0 34 34" fill="none" xmlns="http://www.w3.org/2000/svg">
<path d="M30.8912 14.2254H29.75V14.1666H17V19.8333H25.0063C23.8383 23.132 20.6997 25.4999 17 25.4999C12.3059 25.4999 8.50004 21.694 8.50004 16.9999C8.50004 12.3058 12.3059 8.49992 17 8.49992C19.1668 8.49992 21.1381 9.31734 22.6391 10.6525L26.6461 6.6455C24.116 4.28746 20.7315 2.83325 17 2.83325C9.1765 2.83325 2.83337 9.17638 2.83337 16.9999C2.83337 24.8235 9.1765 31.1666 17 31.1666C24.8236 31.1666 31.1667 24.8235 31.1667 16.9999C31.1667 16.05 31.069 15.1228 30.8912 14.2254Z" fill="#FFC107"/>
<path d="M4.4668 10.406L9.12125 13.8195C10.3807 10.7014 13.4308 8.49992 17 8.49992C19.1668 8.49992 21.1381 9.31734 22.6391 10.6525L26.6461 6.6455C24.116 4.28746 20.7315 2.83325 17 2.83325C11.5586 2.83325 6.83971 5.90529 4.4668 10.406Z" fill="#FF3D00"/>
<path d="M17.0001 31.1667C20.6593 31.1667 23.9842 29.7663 26.4981 27.489L22.1135 23.7787C20.6434 24.8968 18.847 25.5015 17.0001 25.5C13.3153 25.5 10.1866 23.1505 9.00793 19.8716L4.38818 23.431C6.73277 28.0188 11.4942 31.1667 17.0001 31.1667Z" fill="#4CAF50"/>
<path d="M30.8911 14.2255H29.75V14.1667H17V19.8334H25.0063C24.4476 21.4034 23.4411 22.7752 22.1113 23.7795L22.1135 23.7781L26.498 27.4884C26.1878 27.7703 31.1667 24.0834 31.1667 17.0001C31.1667 16.0502 31.0689 15.123 30.8911 14.2255Z" fill="#1976D2"/>
</svg>
